X:2
T:Some Say The Devil's Dead
T:Carry Me Down To Carlow
T:Love Won't You Marry Me
S:Flos Headford <flos:madasafish.com> tradtunes 2010-4-7
C:not known
R:hp 16 schot
Z:PJHeadford.
M:4/4
L:1/8
Q:2/4=70
K:G
|: D2D>E G>AB>A | G>EE>D c>EE>D |\ 
D2D>E G>AB>c | d>ed>B A2G2 :|] 
d2d>c B>cd2 | e2e>d e>fg>e | d2d>c B>cd>B | G>AB>G A2G2 |\
d2d>c B>cd2 | e2e>d e>fg>e | d>eg>d (3efg e>d | B>GA>F G2G2 |] 

